X:3
T:Merry Girls of Epsom
M:6/8
L:1/8
B:Thompson's Compleat Collection of 200 Favourite Country Dances, vol. 1 (London, 1757)
Z:Transcribed and edited by Fynnian Titford-Mock, 2007
Z:abc's:AK/Fiddler's Companion
K:Bb
B|FDE F2B|FDE F2B|cec BdB|cAF F2B|BDE F2B|FDE F2 f/e/|dcB FAB|BFD B,2:|
|:f|fdB fg_a|{_a}(g3 g2)g|gec egb|{b}(a3 a2)g|fbf dfd|ege cec|dBA FBA|BFD
B,2:|

